!!!OTL: EIN HELLER UND EIN BATZEN
!!!ARE: Europa, Mitteleuropa, Deutschland
!!!SCT: F0042
!!!YEM: Copyright 1995, estate of Helmut Schaffrath.
**kern
*ICvox
*Ivox
*M2/4
*k[f#]
*G:
{8d
=1
8.g
16f#
8g
8a
=2
4b
8g}
{8g
=3
8.b
16a
8b
8cc
=4
4dd
8r}
{8b
=5
8cc
8ee
8dd
8cc
=6
8b
8dd
8cc}
{8b
=7
8a
8b
8cc
8a
=8
8b
8cc
8dd}
{16cc
16b
=9
8a
8b
8cc
16b
16cc
=10
8dd
4r}
{8cc
=11
8b
8b
8a
8a
=12
4g
8r}
==
!!!AGN: Trink -, Wander - Lied
!!!ONB: ESAC (Essen Associative Code) Database: FINK
!!!AMT: simple duple
!!!AIN: vox
!!!EED: Helmut Schaffrath
!!!EEV: 1.0
*-
